!!!OTL: Fang yang diao
!!!ARE: Asia, China, Shanxi Xixiang
!! I,
!!!SCT: C1401
!!!YEM: Copyright 1995, estate of Helmut Schaffrath.
**kern
*ICvox
*Ivox
*M2/4
*k[]
*C:
{4.dd
16cc
16cc
=1
16dd
16ee
8cc
4a
=2
8a
8dd
8a
8dd
=3
8cc
8a
4g}
=4
{8cc
8a
8cc
8dd
=5
8cc
8dd
16cc
16dd
8a
=6
4.g
16f
16g
=7
8.f
16g
16a
16cc
8a
=8
2g}
==
!!!AGN: Xiaodiao. Changgong fangyang shenghuo
!!!ONB: ESAC (Essen Associative Code) Database: HUANG
!!!AMT: simple duple
!!!AIN: vox
!!!EED: Helmut Schaffrath
!!!EEV: 1.0
*-
